src/assets/uil_arrow-up.svg

<svg width="57" height="57" viewBox="0 0 57 57" fill="none" xmlns="http://www.w3.org/2000/svg">
<foreignObject x="-10" y="-14" width="77" height="77"><div xmlns="http://www.w3.org/1999/xhtml" style="backdrop-filter:blur(10px);clip-path:url(#bgblur_0_297_645_clip_path);height:100%;width:100%"></div></foreignObject><g filter="url(#filter0_d_297_645)" data-figma-bg-blur-radius="20">
<rect x="10.5" y="6.5" width="36" height="36" rx="18" fill="white" fill-opacity="0.4" shape-rendering="crispEdges"/>
<rect x="10.5" y="6.5" width="36" height="36" rx="18" stroke="url(#paint0_linear_297_645)" shape-rendering="crispEdges"/>
<path d="M33.7721 28.3129L33.4795 20.8862C33.471 20.7478 33.4354 20.6103 33.3746 20.4816C33.258 20.2223 33.0472 20.0115 32.7879 19.8949C32.6592 19.8341 32.5217 19.7985 32.3833 19.79L24.9566 19.4974C24.8181 19.492 24.6821 19.5138 24.5562 19.5618C24.4303 19.6098 24.3171 19.6829 24.2231 19.7769C24.0331 19.9669 23.9326 20.2308 23.9436 20.5105C23.9546 20.7902 24.0763 21.0628 24.2818 21.2683C24.4874 21.4739 24.76 21.5956 25.0397 21.6066L29.9336 21.792L23.8054 27.9202C23.6162 28.1094 23.5161 28.3722 23.527 28.6508C23.538 28.9293 23.6592 29.2008 23.8639 29.4056C24.0687 29.6103 24.3402 29.7315 24.6187 29.7424C24.8973 29.7534 25.1601 29.6533 25.3493 29.4641L31.4775 23.3359L31.6629 28.2298C31.6678 28.3684 31.7001 28.5069 31.7579 28.6371C31.8158 28.7674 31.898 28.887 31.9999 28.9889C32.1018 29.0908 32.2214 29.173 32.3517 29.2309C32.482 29.2887 32.6204 29.321 32.759 29.3259C32.8977 29.332 33.034 29.3105 33.1602 29.2627C33.2863 29.215 33.3997 29.1419 33.4939 29.0477C33.5881 28.9536 33.6611 28.8401 33.7089 28.714C33.7566 28.5879 33.7781 28.4516 33.7721 28.3129Z" fill="#030205"/>
</g>
<defs>
<filter id="filter0_d_297_645" x="-10" y="-14" width="77" height="77" filterUnits="userSpaceOnUse" color-interpolation-filters="sRGB">
<feFlood flood-opacity="0" result="BackgroundImageFix"/>
<feColorMatrix in="SourceAlpha" type="matrix" values="0 0 0 0 0 0 0 0 0 0 0 0 0 0 0 0 0 0 127 0" result="hardAlpha"/>
<feOffset dy="4"/>
<feGaussianBlur stdDeviation="5"/>
<feComposite in2="hardAlpha" operator="out"/>
<feColorMatrix type="matrix" values="0 0 0 0 0 0 0 0 0 0 0 0 0 0 0 0 0 0 0.05 0"/>
<feBlend mode="normal" in2="BackgroundImageFix" result="effect1_dropShadow_297_645"/>
<feBlend mode="normal" in="SourceGraphic" in2="effect1_dropShadow_297_645" result="shape"/>
</filter>
<clipPath id="bgblur_0_297_645_clip_path" transform="translate(10 14)"><rect x="10.5" y="6.5" width="36" height="36" rx="18"/>
</clipPath><linearGradient id="paint0_linear_297_645" x1="21.0882" y1="6.5" x2="46.5" y2="42.5" gradientUnits="userSpaceOnUse">
<stop stop-color="white"/>
<stop offset="1" stop-color="white" stop-opacity="0"/>
</linearGradient>
</defs>
</svg>

<svg xmlns="http://www.w3.org/2000/svg" width="57" height="57" fill="none"><foreignObject width="77" height="77" x="-10" y="-14"><div xmlns="http://www.w3.org/1999/xhtml" style="backdrop-filter:blur(10px);clip-path:url(#a);height:100%;width:100%"/></foreignObject><g data-figma-bg-blur-radius="20" filter="url(#b)"><rect width="36" height="36" x="10.5" y="6.5" fill="#fff" fill-opacity=".4" rx="18" shape-rendering="crispEdges"/><rect width="36" height="36" x="10.5" y="6.5" stroke="url(#c)" rx="18" shape-rendering="crispEdges"/><path fill="#030205" d="m33.772 28.313-.292-7.427a1.1 1.1 0 0 0-.105-.404 1.18 1.18 0 0 0-.587-.587 1.1 1.1 0 0 0-.405-.105l-7.426-.293a1 1 0 0 0-.4.065.95.95 0 0 0-.334.215.98.98 0 0 0-.28.733c.012.28.133.553.339.758.205.206.478.328.758.339l4.894.185-6.129 6.128a.97.97 0 0 0-.278.73c.011.28.132.55.337.756.205.204.476.326.755.336a.97.97 0 0 0 .73-.278l6.128-6.128.186 4.894c.005.138.037.277.095.407a1.17 1.17 0 0 0 .594.594q.197.087.407.095t.401-.063a.94.94 0 0 0 .549-.549 1 1 0 0 0 .063-.401"/></g><defs><linearGradient id="c" x1="21.088" x2="46.5" y1="6.5" y2="42.5" gradientUnits="userSpaceOnUse"><stop stop-color="#fff"/><stop offset="1" stop-color="#fff" stop-opacity="0"/></linearGradient><clipPath id="a" transform="translate(10 14)"><rect width="36" height="36" x="10.5" y="6.5" rx="18"/></clipPath><filter id="b" width="77" height="77" x="-10" y="-14" color-interpolation-filters="sRGB" filterUnits="userSpaceOnUse"><feFlood flood-opacity="0" result="BackgroundImageFix"/><feColorMatrix in="SourceAlpha" result="hardAlpha" values="0 0 0 0 0 0 0 0 0 0 0 0 0 0 0 0 0 0 127 0"/><feOffset dy="4"/><feGaussianBlur stdDeviation="5"/><feComposite in2="hardAlpha" operator="out"/><feColorMatrix values="0 0 0 0 0 0 0 0 0 0 0 0 0 0 0 0 0 0 0.05 0"/><feBlend in2="BackgroundImageFix" result="effect1_dropShadow_297_645"/><feBlend in="SourceGraphic" in2="effect1_dropShadow_297_645" result="shape"/></filter></defs></svg>
